X: 75
T: Chahar ba qi
L: 1/8
M: 4/4
K: F
D G G G A G A d [I:setbarnb 1]| 
c2>f2d4 | 
D G G G A G A d | 
c8 | 
A2d> f A GF2 | 
D D F DC2C2 | 
A c F D C D A G | 
F8 |]

@@@ Tune index: 8743
